build/category/RobotSolid.svg

<svg xmlns="http://www.w3.org/2000/svg" fill="none" viewBox="0 0 24 24" focusable="false"><path d="M0 0H24V24H0z"/><path fill="#74767B" fill-rule="evenodd" d="M12.6662 4L12.6662 2.64982C12.6662 2.29083 12.3751 1.99982 12.0162 1.99982C11.6572 1.99982 11.3662 2.29083 11.3662 2.64982L11.3662 4L6.99994 4C5.34309 4 3.99994 5.34315 3.99994 7L3.99994 10.9998L2.64976 10.9998C2.29077 10.9998 1.99976 11.2908 1.99976 11.6498C1.99976 12.0088 2.29077 12.2998 2.64976 12.2998L3.99994 12.2998L3.99994 17C3.99994 18.6569 5.34309 20 6.99994 20L16.9999 20C18.6568 20 19.9999 18.6569 19.9999 17L19.9999 12.2998L21.3499 12.2998C21.7089 12.2998 21.9999 12.0088 21.9999 11.6498C21.9999 11.2908 21.7089 10.9998 21.3499 10.9998L19.9999 10.9998L19.9999 7C19.9999 5.34315 18.6568 4 16.9999 4L12.6662 4ZM15.0156 10.1191C15.0156 9.70493 14.6798 9.36915 14.2656 9.36915C13.8514 9.36915 13.5156 9.70493 13.5156 10.1191C13.5156 10.5334 13.8514 10.8691 14.2656 10.8691C14.6798 10.8691 15.0156 10.5334 15.0156 10.1191ZM9.22953 14.6258C8.87055 14.6258 8.57953 14.3348 8.57953 13.9758C8.57953 13.6169 8.87055 13.3258 9.22953 13.3258L14.8028 13.3258C15.1617 13.3258 15.4528 13.6169 15.4528 13.9758C15.4528 14.3348 15.1617 14.6258 14.8028 14.6258L9.22953 14.6258ZM10.5156 10.1191C10.5156 9.70493 10.1798 9.36915 9.76557 9.36915C9.35136 9.36915 9.01557 9.70493 9.01557 10.1191C9.01557 10.5334 9.35136 10.8691 9.76557 10.8691C10.1798 10.8691 10.5156 10.5334 10.5156 10.1191Z"/></svg>

<svg xmlns="http://www.w3.org/2000/svg" fill="none" viewBox="0 0 24 24" focusable="false"><path fill="#74767B" fill-rule="evenodd" d="M12.66 4V2.64c0-.35-.29-.65-.65-.65s-.65.3-.65.65V4H7C5.34 4 4 5.34 4 7v3.99H2.64c-.35 0-.65.3-.65.65 0 .36.3.65.65.65H4V17c0 1.65 1.34 3 3 3h10c1.65 0 3-1.35 3-3v-4.71h1.34c.36 0 .66-.29.66-.65 0-.35-.3-.65-.66-.65H20V7c0-1.66-1.35-3-3-3zm2.35 6.11c0-.41-.34-.75-.75-.75s-.75.34-.75.75a.749.749 0 1 0 1.5 0m-5.79 4.51c-.35 0-.65-.29-.65-.65s.3-.65.65-.65h5.58c.36 0 .65.29.65.65s-.29.65-.65.65zm1.29-4.51c0-.41-.34-.75-.75-.75s-.75.34-.75.75a.749.749 0 1 0 1.5 0"/></svg>
